X:1721
T:Vals efter Vifast
R:Vals
S:Efter Vifast Björklund
O:Överkalix, Norrbotten
Z:ABC-transkribering av Johan Dahlberg
M:3/4
L:1/8
K:D
A2 AB AG|F2FG FE|D2DE FG|(A2A4)|
A2AB AG|F2FG FE|D2DE FE|(E2D4):|
|:d2(3d_dB A2|d2(3d_dB A2|d2(3d_dB A2|(A2F4):|
(:musicend:)
(:music:)
